packages/tokens/icons/cardFront/size32Px.svg

<svg viewBox="0 0 32 32" fill="none" xmlns="http://www.w3.org/2000/svg" width="1em" height="1em"><path d="M2.5 10C2.5 9.17157 3.17157 8.5 4 8.5L28 8.5C28.8284 8.5 29.5 9.17157 29.5 10L29.5 24C29.5 24.8284 28.8284 25.5 28 25.5L4 25.5C3.17157 25.5 2.5 24.8284 2.5 24L2.5 10Z" stroke="currentColor"/><path d="M5.5 18.5H10M14 18.5L18 18.5M22 18.5H26.5" stroke="currentColor" stroke-linecap="round" stroke-dasharray="1 2"/><rect x="5.5" y="11.5" width="4" height="4" rx="0.5" stroke="currentColor"/><line x1="5.5" y1="21.5" x2="14.5" y2="21.5" stroke="currentColor" stroke-linecap="round"/><circle cx="25" cy="22" r="1.5" stroke="currentColor"/></svg>

<svg xmlns="http://www.w3.org/2000/svg" fill="none" viewBox="0 0 32 32" width="1em" height="1em"><path stroke="currentColor" d="M2.5 10A1.5 1.5 0 0 1 4 8.5h24a1.5 1.5 0 0 1 1.5 1.5v14a1.5 1.5 0 0 1-1.5 1.5H4A1.5 1.5 0 0 1 2.5 24V10Z"/><path stroke="currentColor" stroke-dasharray="1 2" stroke-linecap="round" d="M5.5 18.5H10m4 0h4m4 0h4.5"/><rect width="4" height="4" x="5.5" y="11.5" stroke="currentColor" rx=".5"/><path stroke="currentColor" stroke-linecap="round" d="M5.5 21.5h9"/><circle cx="25" cy="22" r="1.5" stroke="currentColor"/></svg>
